X:794
T:Snug in the blanket
R:Jig
O:Ireland
B:O'Neill's 889
S:O'Neill's 889
Z:Transcription,slight rearrangement, chords:Mike Long
M:6/8
L:1/8
K:G
G|:\
"Am"A2B cBc|EDE c2A|"G"B2G "D"AFD|"G"GFG BAG|\
"Am"A2B cBc|EDE c2A|"G"BdB "D"cAF|"G"~G3 BAG:|
|:"D"FGA AFd|AFd AFd|FGA AFd|"C"EFG GFE|\
"D"FGA AFd|"D"AFd "C"ABc|"G"BdB "D/C"cAF|"G"~G3 BAG:|
|:"D"FGA AFD|DED AFD|FGA AFD|"G"~G3 BAG|\
"D"FGA AFD|"D"DED "C"ABc|"G"BdB "D/C"cAF|"G"~G3 BAG:|
